Resources/app/storefront/src/assets/icon-pack/cinema/ic-calendar.svg

<?xml version="1.0" encoding="UTF-8"?><svg width="22" height="24" xmlns="http://www.w3.org/2000/svg" xmlns:xlink="http://www.w3.org/1999/xlink"><defs><path d="M16 0c.6 0 1 .4 1 1v1h5a1 1 0 0 1 1 1v20a1 1 0 0 1-1 1H2a1 1 0 0 1-1-1V3a1 1 0 0 1 1-1h5V1c0-.6.4-1 1-1s1 .4 1 1v1h6V1c0-.6.4-1 1-1ZM7 4H3v18.1h18V9H5c-.6 0-1-.4-1-1s.4-1 1-1h16V4h-4v1c0 .6-.4 1-1 1s-1-.4-1-1V4H9v1c0 .56-.34.94-.87 1H8c-.6 0-1-.4-1-1V4Zm4.1 8.1v.6l-1.4 1.8c1.1 0 1.8.7 1.8 1.9 0 1.3-1 2.1-2.2 2.1-1.4 0-2.2-.8-2.3-1.9l1.4-.2c.1.4.4.8.9.8.4 0 .8-.3.7-.9 0-.5-.4-.9-.9-.9-.1 0-.4 0-.5.1l-.6-.8 1.1-1.4H7.3v-1.2h3.8Zm3.6-.1c1.5 0 2.4 1.2 2.4 3.2 0 2.1-.9 3.3-2.4 3.2-1.5 0-2.4-1.2-2.4-3.2s.8-3.2 2.4-3.2Zm-.1 1.3c-.6 0-1 .7-1 1.9 0 1.3.4 2 1 1.9.6 0 1-.7 1-1.9s-.3-1.9-1-1.9Z" id="a"/></defs><g transform="translate(-1)" fill="none" fill-rule="evenodd"><mask id="b" fill="#fff"><use xlink:href="#a"/></mask><use fill="#071C31" xlink:href="#a"/><g mask="url(#b)" fill="#071C31"><path d="M0 0h24v24H0z"/></g></g></svg>

<?xml version="1.0" encoding="UTF-8"?>
<svg width="22px" height="24px" viewBox="0 0 22 24" version="1.1" xmlns="http://www.w3.org/2000/svg" xmlns:xlink="http://www.w3.org/1999/xlink">
    <title>A7590268-4B95-44B9-808F-EB744696189C@1x</title>
    <defs>
        <path d="M16,0 C16.6,0 17,0.4 17,1 L17,1 L17,2 L22,2 C22.5522847,2 23,2.44771525 23,3 L23,3 L23,23 C23,23.5522847 22.5522847,24 22,24 L22,24 L2,24 C1.44771525,24 1,23.5522847 1,23 L1,23 L1,3 C1,2.44771525 1.44771525,2 2,2 L2,2 L7,2 L7,1 C7,0.4 7.4,0 8,0 C8.6,0 9,0.4 9,1 L9,1 L9,2 L15,2 L15,1 C15,0.4 15.4,0 16,0 Z M7,4 L3,4 L3,22.1 L21,22.1 L21,9 L5,9 C4.4,9 4,8.6 4,8 C4,7.4 4.4,7 5,7 L5,7 L21,7 L21,4 L17,4 L17,5 C17,5.6 16.6,6 16,6 C15.4,6 15,5.6 15,5 L15,5 L15,4 L9,4 L9,5 C9,5.55714286 8.65510204,5.94183673 8.12543732,5.99395044 L8,6 C7.4,6 7,5.6 7,5 L7,5 L7,4 Z M11.1,12.1 L11.1,12.7 L9.7,14.5 C10.8,14.5 11.5,15.2 11.5,16.4 C11.5,17.7 10.5,18.5 9.3,18.5 C7.9,18.5 7.1,17.7 7,16.6 L7,16.6 L8.4,16.4 C8.5,16.8 8.8,17.2 9.3,17.2 C9.7,17.2 10.1,16.9 10,16.3 C10,15.8 9.6,15.4 9.1,15.4 C9,15.4 8.7,15.4 8.6,15.5 L8.6,15.5 L8,14.7 L9.1,13.3 L7.3,13.3 L7.3,12.1 L11.1,12.1 Z M14.7,12 C16.2,12 17.1,13.2 17.1,15.2 C17.1,17.3 16.2,18.5 14.7,18.4 C13.2,18.4 12.3,17.2 12.3,15.2 C12.3,13.2 13.1,12 14.7,12 Z M14.6,13.3 C14,13.3 13.6,14 13.6,15.2 C13.6,16.5 14,17.2 14.6,17.1 C15.2,17.1 15.6,16.4 15.6,15.2 C15.6,14 15.3,13.3 14.6,13.3 Z" id="path-1"></path>
    </defs>
    <g id="Lizenzen-&amp;-Assets-✅" stroke="none" stroke-width="1" fill="none" fill-rule="evenodd">
        <g id="Icons" transform="translate(-388.000000, -651.000000)">
            <g id="Group" transform="translate(387.000000, 651.000000)">
                <mask id="mask-2" fill="white">
                    <use xlink:href="#path-1"></use>
                </mask>
                <use id="Combined-Shape" fill="#071C31" xlink:href="#path-1"></use>
                <g mask="url(#mask-2)" fill="#071C31" id="Rectangle">
                    <g>
                        <rect x="0" y="0" width="24" height="24"></rect>
                    </g>
                </g>
            </g>
        </g>
    </g>
</svg>
